X:152
T:Our Last 
R:
C:Bruce Osborne - Mar. 2002
Z:abc by bosborne@kos.net
M:3/4
L:1/8
K:Bb
DE|F D4 F|G E4 G|F3 G FE|D3 B, A,B,|\
C3 B, CD|EF AG FA|BA Bc dg|f4 DE|\
F D4 F|G E4 G|F3 G FE|D3 B, A,B,|\
C3 B, CD|EF AG FA|BA Bd cA|B4||\
fg|f2 d2 FG|F2 D2 DC|B,A, B,D GD|F4 (3gab|\
a3 g fe|c4 ga|g3 f dB|F4 fg|\
f2 d2 FG|F2 D2 DC|B,A, B,D GD|F4 (3gab|\
a3 g fe|c3 A FA|B3 d cA|B4||
